polaris-icons/icons/newicons/ResetMinor.svg

<svg width="20" height="20" viewBox="0 0 20 20" fill="none" xmlns="http://www.w3.org/2000/svg">
<path d="M17 9.25C17 9.66421 16.6642 10 16.25 10C15.8358 10 15.5 9.66421 15.5 9.25C15.5 7.59315 14.1569 6.25 12.5 6.25H4.93402L6.05747 7.49828C6.33457 7.80616 6.30961 8.28038 6.00172 8.55747C5.69384 8.83456 5.21962 8.80961 4.94253 8.50172L2.69253 6.00172C2.42568 5.70523 2.43761 5.25173 2.71967 4.96967L4.96967 2.71967C5.26257 2.42678 5.73744 2.42678 6.03033 2.71967C6.32322 3.01256 6.32322 3.48744 6.03033 3.78033L5.06066 4.75H12.5C14.9853 4.75 17 6.76472 17 9.25Z" fill="black"/>
<path d="M3 10.75C3 10.3358 3.33579 10 3.75 10C4.16422 10 4.5 10.3358 4.5 10.75C4.5 12.4069 5.84315 13.75 7.5 13.75H15.066L13.9425 12.5017C13.6654 12.1938 13.6904 11.7196 13.9983 11.4425C14.3062 11.1654 14.7804 11.1904 15.0575 11.4983L17.3075 13.9983C17.5743 14.2948 17.5624 14.7483 17.2803 15.0303L15.0303 17.2803C14.7374 17.5732 14.2626 17.5732 13.9697 17.2803C13.6768 16.9874 13.6768 16.5126 13.9697 16.2197L14.9393 15.25H7.5C5.01472 15.25 3 13.2353 3 10.75Z" fill="black"/>
</svg>

<svg viewBox="0 0 20 20" fill="none" xmlns="http://www.w3.org/2000/svg"><path d="M17 9.25a.75.75 0 0 1-1.5 0 3 3 0 0 0-3-3h-7.566l1.123 1.248a.75.75 0 1 1-1.114 1.004l-2.25-2.5a.75.75 0 0 1 .027-1.032l2.25-2.25a.75.75 0 0 1 1.06 1.06l-.97.97h7.44a4.5 4.5 0 0 1 4.5 4.5Z" fill="#5C5F62"/><path d="M3 10.75a.75.75 0 0 1 1.5 0 3 3 0 0 0 3 3h7.566l-1.123-1.248a.75.75 0 1 1 1.114-1.004l2.25 2.5a.75.75 0 0 1-.027 1.032l-2.25 2.25a.75.75 0 1 1-1.06-1.06l.97-.97h-7.44a4.5 4.5 0 0 1-4.5-4.5Z" fill="#5C5F62"/></svg>
